third_party/noto/noto_2/emoji_u1f962.svg

<svg enable-background="new 0 0 128 128" viewBox="0 0 128 128" xmlns="http://www.w3.org/2000/svg"><linearGradient id="d" x1="53.173" x2="53.173" y1="142.93" y2="-11.07" gradientTransform="matrix(.7407 .6719 -.564 .6218 47.287 -8.1387)" gradientUnits="userSpaceOnUse"><stop stop-color="#CC403D" offset=".101"/><stop stop-color="#EF5350" offset=".7948"/></linearGradient><path d="m89.77 17.86-84.47 94.34c-0.98 1.1-0.69 2.95 0.64 4.16s3.21 1.31 4.21 0.24l85.9-93.05-6.28-5.69z" fill="url(#d)"/><g opacity=".2"><path d="m89.84 19.27 4.79 4.34-85.21 92.3c-0.32 0.35-0.76 0.42-1.08 0.42-0.59 0-1.22-0.26-1.73-0.72-0.91-0.82-1.17-2.08-0.57-2.75l83.8-93.59m-0.07-1.41-84.47 94.34c-0.98 1.1-0.69 2.95 0.64 4.16 0.72 0.65 1.59 0.98 2.4 0.98 0.7 0 1.35-0.24 1.81-0.74l85.9-93.05-6.28-5.69z" fill="#424242"/></g><linearGradient id="c" x1="53.194" x2="53.194" y1="-13.87" y2="-49.005" gradientTransform="matrix(.7407 .6719 -.564 .6218 47.287 -8.1387)" gradientUnits="userSpaceOnUse"><stop stop-color="#212121" offset=".2892"/><stop stop-color="#616161" offset="1"/></linearGradient><path d="m108.11 10.53c1.38-1.5 1.05-4.04-0.74-5.68-1.81-1.66-4.41-1.76-5.79-0.23l-16.85 19.02 5.88 5.82 17.5-18.93z" fill="url(#c)"/><g opacity=".2"><path d="m104.16 4.53c0.89 0 1.81 0.38 2.54 1.05 0.77 0.7 1.23 1.63 1.26 2.55 0.02 0.47-0.07 1.15-0.59 1.72l-16.8 18.17-4.48-4.43 16.23-18.31c0.45-0.48 1.1-0.75 1.84-0.75m0-1c-0.99 0-1.92 0.36-2.57 1.09l-16.86 19.02 5.88 5.82 17.5-18.93c1.38-1.5 1.05-4.04-0.74-5.68-0.94-0.88-2.11-1.32-3.21-1.32z" fill="#eee"/></g><linearGradient id="b" x1="68.474" x2="68.474" y1="142.65" y2="-11.346" gradientTransform="matrix(.7015 .7127 -.5983 .5889 51.708 -9.0744)" gradientUnits="userSpaceOnUse"><stop stop-color="#CC403D" offset=".101"/><stop stop-color="#EF5350" offset=".7948"/></linearGradient><path d="m103.55 30.03-89.67 89.42c-1.04 1.04-0.85 2.91 0.41 4.19s3.13 1.49 4.19 0.47l91.03-88.04-5.96-6.04z" fill="url(#b)"/><g opacity=".2"><path d="m103.54 31.44 4.54 4.61-90.3 87.34c-0.31 0.3-0.71 0.36-0.99 0.36-0.62 0-1.29-0.31-1.79-0.82-0.86-0.87-1.05-2.14-0.41-2.78l88.95-88.71m0.01-1.41-89.67 89.42c-1.04 1.04-0.85 2.91 0.41 4.19 0.72 0.74 1.65 1.12 2.51 1.12 0.64 0 1.23-0.21 1.68-0.64l91.03-88.04-5.96-6.05z" fill="#424242"/></g><linearGradient id="a" x1="68.495" x2="68.495" y1="-14.146" y2="-49.281" gradientTransform="matrix(.7015 .7127 -.5983 .5889 51.708 -9.0744)" gradientUnits="userSpaceOnUse"><stop stop-color="#212121" offset=".2892"/><stop stop-color="#616161" offset="1"/></linearGradient><path d="m122.28 23.75c1.47-1.42 1.28-3.98-0.41-5.72-1.71-1.76-4.31-2.01-5.77-0.55l-17.91 18.03 5.55 6.15 18.54-17.91z" fill="url(#a)"/><g opacity=".2"><path d="m118.5 17.53c0.94 0 1.91 0.44 2.65 1.2 0.72 0.74 1.13 1.7 1.12 2.62-0.01 0.47-0.13 1.15-0.68 1.68l-17.8 17.19-4.22-4.67 17.24-17.36c0.54-0.55 1.22-0.66 1.69-0.66m0-1c-0.91 0-1.76 0.31-2.4 0.95l-17.91 18.03 5.55 6.15 18.55-17.91c1.47-1.42 1.28-3.98-0.41-5.72-0.97-0.99-2.22-1.5-3.38-1.5z" fill="#eee"/></g></svg>

<svg width="128" height="128" style="enable-background:new 0 0 128 128;" xmlns="http://www.w3.org/2000/svg" xmlns:xlink="http://www.w3.org/1999/xlink">
  <g id="Layer_2">
    <linearGradient id="SVGID_1_" gradientTransform="matrix(0.7407 0.6719 -0.564 0.6218 47.2874 -8.1387)" gradientUnits="userSpaceOnUse" x1="53.1732" x2="53.1732" y1="142.9297" y2="-11.0695">
      <stop offset="0.101" style="stop-color:#CC403D"/>
      <stop offset="0.7948" style="stop-color:#EF5350"/>
    </linearGradient>
    <path d="M89.77,17.86L5.3,112.2c-0.98,1.1-0.69,2.95,0.64,4.16c1.33,1.21,3.21,1.31,4.21,0.24 l85.9-93.05L89.77,17.86z" style="fill:url(#SVGID_1_);"/>
    <g style="opacity:0.2;">
      <path d="M89.84,19.27l4.79,4.34l-85.21,92.3c-0.32,0.35-0.76,0.42-1.08,0.42c-0.59,0-1.22-0.26-1.73-0.72 c-0.91-0.82-1.17-2.08-0.57-2.75L89.84,19.27 M89.77,17.86L5.3,112.2c-0.98,1.1-0.69,2.95,0.64,4.16c0.72,0.65,1.59,0.98,2.4,0.98 c0.7,0,1.35-0.24,1.81-0.74l85.9-93.05L89.77,17.86L89.77,17.86z" style="fill:#424242;"/>
    </g>
    <linearGradient id="SVGID_2_" gradientTransform="matrix(0.7407 0.6719 -0.564 0.6218 47.2874 -8.1387)" gradientUnits="userSpaceOnUse" x1="53.1935" x2="53.1935" y1="-13.8698" y2="-49.0046">
      <stop offset="0.2892" style="stop-color:#212121"/>
      <stop offset="1" style="stop-color:#616161"/>
    </linearGradient>
    <path d="M108.11,10.53c1.38-1.5,1.05-4.04-0.74-5.68c-1.81-1.66-4.41-1.76-5.79-0.23L84.73,23.64 l5.88,5.82L108.11,10.53z" style="fill:url(#SVGID_2_);"/>
    <g style="opacity:0.2;">
      <path d="M104.16,4.53c0.89,0,1.81,0.38,2.54,1.05c0.77,0.7,1.23,1.63,1.26,2.55 c0.02,0.47-0.07,1.15-0.59,1.72l-16.8,18.17l-4.48-4.43l16.23-18.31C102.77,4.8,103.42,4.53,104.16,4.53 M104.16,3.53 c-0.99,0-1.92,0.36-2.57,1.09L84.73,23.64l5.88,5.82l17.5-18.93c1.38-1.5,1.05-4.04-0.74-5.68 C106.43,3.97,105.26,3.53,104.16,3.53L104.16,3.53z" style="fill:#EEEEEE;"/>
    </g>
    <linearGradient id="SVGID_3_" gradientTransform="matrix(0.7015 0.7127 -0.5983 0.5889 51.7085 -9.0744)" gradientUnits="userSpaceOnUse" x1="68.4745" x2="68.4745" y1="142.6536" y2="-11.3456">
      <stop offset="0.101" style="stop-color:#CC403D"/>
      <stop offset="0.7948" style="stop-color:#EF5350"/>
    </linearGradient>
    <path d="M103.55,30.03l-89.67,89.42c-1.04,1.04-0.85,2.91,0.41,4.19s3.13,1.49,4.19,0.47l91.03-88.04 L103.55,30.03z" style="fill:url(#SVGID_3_);"/>
    <g style="opacity:0.2;">
      <path d="M103.54,31.44l4.54,4.61l-90.3,87.34c-0.31,0.3-0.71,0.36-0.99,0.36c-0.62,0-1.29-0.31-1.79-0.82 c-0.86-0.87-1.05-2.14-0.41-2.78L103.54,31.44 M103.55,30.03l-89.67,89.42c-1.04,1.04-0.85,2.91,0.41,4.19 c0.72,0.74,1.65,1.12,2.51,1.12c0.64,0,1.23-0.21,1.68-0.64l91.03-88.04L103.55,30.03L103.55,30.03z" style="fill:#424242;"/>
    </g>
    <linearGradient id="SVGID_5_" gradientTransform="matrix(0.7015 0.7127 -0.5983 0.5889 51.7085 -9.0744)" gradientUnits="userSpaceOnUse" x1="68.4948" x2="68.4948" y1="-14.1459" y2="-49.2807">
      <stop offset="0.2892" style="stop-color:#212121"/>
      <stop offset="1" style="stop-color:#616161"/>
    </linearGradient>
    <path d="M122.28,23.75c1.47-1.42,1.28-3.98-0.41-5.72c-1.71-1.76-4.31-2.01-5.77-0.55L98.19,35.51 l5.55,6.15L122.28,23.75z" style="fill:url(#SVGID_5_);"/>
    <g style="opacity:0.2;">
      <path d="M118.5,17.53c0.94,0,1.91,0.44,2.65,1.2c0.72,0.74,1.13,1.7,1.12,2.62 c-0.01,0.47-0.13,1.15-0.68,1.68l-17.8,17.19l-4.22-4.67l17.24-17.36C117.35,17.64,118.03,17.53,118.5,17.53 M118.5,16.53 c-0.91,0-1.76,0.31-2.4,0.95L98.19,35.51l5.55,6.15l18.55-17.91c1.47-1.42,1.28-3.98-0.41-5.72 C120.91,17.04,119.66,16.53,118.5,16.53L118.5,16.53z" style="fill:#EEEEEE;"/>
    </g>
  </g>
  <g id="レイヤー_1" style="display:none;">
    <g style="display:inline;">
      <g style="opacity:0.6;">
        <circle cx="64" cy="64" r="28" style="opacity:0.61;fill:none;stroke:#000000;stroke-width:0.2625;stroke-miterlimit:10;"/>
        <line style="opacity:0.61;fill:none;stroke:#000000;stroke-width:0.25;stroke-miterlimit:10;" x1="84" x2="84" y1="0" y2="128"/>
        <line style="opacity:0.61;fill:none;stroke:#000000;stroke-width:0.25;stroke-miterlimit:10;" x1="44" x2="44" y1="0" y2="128"/>
        <line style="opacity:0.61;fill:none;stroke:#000000;stroke-width:0.25;stroke-miterlimit:10;" x1="64" x2="64" y1="0" y2="128"/>
        <line style="opacity:0.61;fill:none;stroke:#000000;stroke-width:0.25;stroke-miterlimit:10;" x1="128" x2="0" y1="64" y2="64"/>
        <line style="opacity:0.61;fill:none;stroke:#000000;stroke-width:0.25;stroke-miterlimit:10;" x1="128" x2="0" y1="44" y2="44"/>
        <line style="opacity:0.61;fill:none;stroke:#000000;stroke-width:0.25;stroke-miterlimit:10;" x1="128" x2="0" y1="83.75" y2="83.75"/>
        <line style="opacity:0.61;fill:none;stroke:#000000;stroke-width:0.25;stroke-miterlimit:10;" x1="128" x2="0" y1="128" y2="0"/>
        <line style="opacity:0.61;fill:none;stroke:#000000;stroke-width:0.25;stroke-miterlimit:10;" x1="0" x2="128" y1="128" y2="0"/>
        <g style="opacity:0.61;">
          <path d="M64,4.26c32.94,0,59.74,26.8,59.74,59.74S96.94,123.74,64,123.74S4.26,96.94,4.26,64S31.06,4.26,64,4.26 M64,4 C30.86,4,4,30.86,4,64s26.86,60,60,60s60-26.86,60-60S97.14,4,64,4L64,4z"/>
        </g>
        <path d="M107.97,115.97H20.03 c-4.42,0-8.03-3.61-8.03-8.03V20.03c0-4.42,3.61-8.03,8.03-8.03h87.94c4.42,0,8.03,3.61,8.03,8.03v87.91 C116,112.36,112.39,115.97,107.97,115.97z" style="opacity:0.61;fill:none;stroke:#000000;stroke-width:0.2578;stroke-miterlimit:10;"/>
        <path d="M100,124H28c-4.4,0-8-3.6-8-8 V12c0-4.4,3.6-8,8-8h72c4.4,0,8,3.6,8,8v104C108,120.4,104.4,124,100,124z" style="opacity:0.61;fill:none;stroke:#000000;stroke-width:0.2628;stroke-miterlimit:10;"/>
        <path d="M113.77,108H14.23 C8.6,108,4,103.4,4,97.77V30.28c0-5.63,4.6-10.23,10.23-10.23h99.54c5.63,0,10.23,4.6,10.23,10.23v67.48 C124,103.4,119.4,108,113.77,108z" style="opacity:0.61;fill:none;stroke:#000000;stroke-width:0.2627;stroke-miterlimit:10;"/>
      </g>
      <g>
        <g style="opacity:0.2;">
          <defs>
            <rect id="SVGID_4_" height="128" style="opacity:0.2;" width="128" x="0" y="0"/>
          </defs>
          <clipPath id="SVGID_6_">
            <use style="overflow:visible;" xlink:href="#SVGID_4_"/>
          </clipPath>
          <g style="clip-path:url(#SVGID_6_);">
            <g>
              <line style="fill:none;stroke:#000000;stroke-width:0.25;stroke-miterlimit:10;" x1="-28" x2="-28" y1="160" y2="-32"/>
              <line style="fill:none;stroke:#000000;stroke-width:0.25;stroke-miterlimit:10;" x1="-24" x2="-24" y1="160" y2="-32"/>
              <line style="fill:none;stroke:#000000;stroke-width:0.25;stroke-miterlimit:10;" x1="-20" x2="-20" y1="160" y2="-32"/>
              <line style="fill:none;stroke:#000000;stroke-width:0.25;stroke-miterlimit:10;" x1="-16" x2="-16" y1="160" y2="-32"/>
              <line style="fill:none;stroke:#000000;stroke-width:0.25;stroke-miterlimit:10;" x1="-12" x2="-12" y1="160" y2="-32"/>
              <line style="fill:none;stroke:#000000;stroke-width:0.25;stroke-miterlimit:10;" x1="-8" x2="-8" y1="160" y2="-32"/>
              <line style="fill:none;stroke:#000000;stroke-width:0.25;stroke-miterlimit:10;" x1="-4" x2="-4" y1="160" y2="-32"/>
              <line style="fill:none;stroke:#000000;stroke-width:0.25;stroke-miterlimit:10;" x1="0" x2="0" y1="160" y2="-32"/>
              <line style="fill:none;stroke:#000000;stroke-width:0.25;stroke-miterlimit:10;" x1="4" x2="4" y1="160" y2="-32"/>
              <line style="fill:none;stroke:#000000;stroke-width:0.25;stroke-miterlimit:10;" x1="8" x2="8" y1="160" y2="-32"/>
              <line style="fill:none;stroke:#000000;stroke-width:0.25;stroke-miterlimit:10;" x1="12" x2="12" y1="160" y2="-32"/>
              <line style="fill:none;stroke:#000000;stroke-width:0.25;stroke-miterlimit:10;" x1="16" x2="16" y1="160" y2="-32"/>
              <line style="fill:none;stroke:#000000;stroke-width:0.25;stroke-miterlimit:10;" x1="20" x2="20" y1="160" y2="-32"/>
              <line style="fill:none;stroke:#000000;stroke-width:0.25;stroke-miterlimit:10;" x1="24" x2="24" y1="160" y2="-32"/>
              <line style="fill:none;stroke:#000000;stroke-width:0.25;stroke-miterlimit:10;" x1="28" x2="28" y1="160" y2="-32"/>
              <line style="fill:none;stroke:#000000;stroke-width:0.25;stroke-miterlimit:10;" x1="32" x2="32" y1="160" y2="-32"/>
              <line style="fill:none;stroke:#000000;stroke-width:0.25;stroke-miterlimit:10;" x1="36" x2="36" y1="160" y2="-32"/>
              <line style="fill:none;stroke:#000000;stroke-width:0.25;stroke-miterlimit:10;" x1="40" x2="40" y1="160" y2="-32"/>
              <line style="fill:none;stroke:#000000;stroke-width:0.25;stroke-miterlimit:10;" x1="44" x2="44" y1="160" y2="-32"/>
              <line style="fill:none;stroke:#000000;stroke-width:0.25;stroke-miterlimit:10;" x1="48" x2="48" y1="160" y2="-32"/>
              <line style="fill:none;stroke:#000000;stroke-width:0.25;stroke-miterlimit:10;" x1="52" x2="52" y1="160" y2="-32"/>
              <line style="fill:none;stroke:#000000;stroke-width:0.25;stroke-miterlimit:10;" x1="56" x2="56" y1="160" y2="-32"/>
              <line style="fill:none;stroke:#000000;stroke-width:0.25;stroke-miterlimit:10;" x1="60" x2="60" y1="160" y2="-32"/>
              <line style="fill:none;stroke:#000000;stroke-width:0.25;stroke-miterlimit:10;" x1="64" x2="64" y1="160" y2="-32"/>
              <line style="fill:none;stroke:#000000;stroke-width:0.25;stroke-miterlimit:10;" x1="68" x2="68" y1="160" y2="-32"/>
              <line style="fill:none;stroke:#000000;stroke-width:0.25;stroke-miterlimit:10;" x1="72" x2="72" y1="160" y2="-32"/>
              <line style="fill:none;stroke:#000000;stroke-width:0.25;stroke-miterlimit:10;" x1="76" x2="76" y1="160" y2="-32"/>
              <line style="fill:none;stroke:#000000;stroke-width:0.25;stroke-miterlimit:10;" x1="80" x2="80" y1="160" y2="-32"/>
              <line style="fill:none;stroke:#000000;stroke-width:0.25;stroke-miterlimit:10;" x1="84" x2="84" y1="160" y2="-32"/>
              <line style="fill:none;stroke:#000000;stroke-width:0.25;stroke-miterlimit:10;" x1="88" x2="88" y1="160" y2="-32"/>
              <line style="fill:none;stroke:#000000;stroke-width:0.25;stroke-miterlimit:10;" x1="92" x2="92" y1="160" y2="-32"/>
              <line style="fill:none;stroke:#000000;stroke-width:0.25;stroke-miterlimit:10;" x1="96" x2="96" y1="160" y2="-32"/>
              <line style="fill:none;stroke:#000000;stroke-width:0.25;stroke-miterlimit:10;" x1="100" x2="100" y1="160" y2="-32"/>
              <line style="fill:none;stroke:#000000;stroke-width:0.25;stroke-miterlimit:10;" x1="104" x2="104" y1="160" y2="-32"/>
              <line style="fill:none;stroke:#000000;stroke-width:0.25;stroke-miterlimit:10;" x1="108" x2="108" y1="160" y2="-32"/>
              <line style="fill:none;stroke:#000000;stroke-width:0.25;stroke-miterlimit:10;" x1="112" x2="112" y1="160" y2="-32"/>
              <line style="fill:none;stroke:#000000;stroke-width:0.25;stroke-miterlimit:10;" x1="116" x2="116" y1="160" y2="-32"/>
              <line style="fill:none;stroke:#000000;stroke-width:0.25;stroke-miterlimit:10;" x1="120" x2="120" y1="160" y2="-32"/>
              <line style="fill:none;stroke:#000000;stroke-width:0.25;stroke-miterlimit:10;" x1="124" x2="124" y1="160" y2="-32"/>
              <line style="fill:none;stroke:#000000;stroke-width:0.25;stroke-miterlimit:10;" x1="128" x2="128" y1="160" y2="-32"/>
              <line style="fill:none;stroke:#000000;stroke-width:0.25;stroke-miterlimit:10;" x1="132" x2="132" y1="160" y2="-32"/>
              <line style="fill:none;stroke:#000000;stroke-width:0.25;stroke-miterlimit:10;" x1="136" x2="136" y1="160" y2="-32"/>
              <line style="fill:none;stroke:#000000;stroke-width:0.25;stroke-miterlimit:10;" x1="137" x2="137" y1="166.05" y2="-25.95"/>
              <line style="fill:none;stroke:#000000;stroke-width:0.25;stroke-miterlimit:10;" x1="144" x2="144" y1="160" y2="-32"/>
              <line style="fill:none;stroke:#000000;stroke-width:0.25;stroke-miterlimit:10;" x1="148" x2="148" y1="160" y2="-32"/>
              <line style="fill:none;stroke:#000000;stroke-width:0.25;stroke-miterlimit:10;" x1="152" x2="152" y1="160" y2="-32"/>
              <line style="fill:none;stroke:#000000;stroke-width:0.25;stroke-miterlimit:10;" x1="156" x2="156" y1="160" y2="-32"/>
            </g>
            <g>
              <line style="fill:none;stroke:#000000;stroke-width:0.25;stroke-miterlimit:10;" x1="-32" x2="160" y1="-28" y2="-28"/>
              <line style="fill:none;stroke:#000000;stroke-width:0.25;stroke-miterlimit:10;" x1="-32" x2="160" y1="-24" y2="-24"/>
              <line style="fill:none;stroke:#000000;stroke-width:0.25;stroke-miterlimit:10;" x1="-32" x2="160" y1="-20" y2="-20"/>
              <line style="fill:none;stroke:#000000;stroke-width:0.25;stroke-miterlimit:10;" x1="-32" x2="160" y1="-16" y2="-16"/>
              <line style="fill:none;stroke:#000000;stroke-width:0.25;stroke-miterlimit:10;" x1="-32" x2="160" y1="-12" y2="-12"/>
              <line style="fill:none;stroke:#000000;stroke-width:0.25;stroke-miterlimit:10;" x1="-32" x2="160" y1="-8" y2="-8"/>
              <line style="fill:none;stroke:#000000;stroke-width:0.25;stroke-miterlimit:10;" x1="-32" x2="160" y1="-4" y2="-4"/>
              <line style="fill:none;stroke:#000000;stroke-width:0.25;stroke-miterlimit:10;" x1="-32" x2="160" y1="0" y2="0"/>
              <line style="fill:none;stroke:#000000;stroke-width:0.25;stroke-miterlimit:10;" x1="-32" x2="160" y1="4" y2="4"/>
              <line style="fill:none;stroke:#000000;stroke-width:0.25;stroke-miterlimit:10;" x1="-32" x2="160" y1="8" y2="8"/>
              <line style="fill:none;stroke:#000000;stroke-width:0.25;stroke-miterlimit:10;" x1="-32" x2="160" y1="12" y2="12"/>
              <line style="fill:none;stroke:#000000;stroke-width:0.25;stroke-miterlimit:10;" x1="-32" x2="160" y1="16" y2="16"/>
              <line style="fill:none;stroke:#000000;stroke-width:0.25;stroke-miterlimit:10;" x1="-32" x2="160" y1="20" y2="20"/>
              <line style="fill:none;stroke:#000000;stroke-width:0.25;stroke-miterlimit:10;" x1="-32" x2="160" y1="24" y2="24"/>
              <line style="fill:none;stroke:#000000;stroke-width:0.25;stroke-miterlimit:10;" x1="-32" x2="160" y1="28" y2="28"/>
              <line style="fill:none;stroke:#000000;stroke-width:0.25;stroke-miterlimit:10;" x1="-32" x2="160" y1="32" y2="32"/>
              <line style="fill:none;stroke:#000000;stroke-width:0.25;stroke-miterlimit:10;" x1="-32" x2="160" y1="36" y2="36"/>
              <line style="fill:none;stroke:#000000;stroke-width:0.25;stroke-miterlimit:10;" x1="-32" x2="160" y1="40" y2="40"/>
              <line style="fill:none;stroke:#000000;stroke-width:0.25;stroke-miterlimit:10;" x1="-32" x2="160" y1="44" y2="44"/>
              <line style="fill:none;stroke:#000000;stroke-width:0.25;stroke-miterlimit:10;" x1="-32" x2="160" y1="48" y2="48"/>
              <line style="fill:none;stroke:#000000;stroke-width:0.25;stroke-miterlimit:10;" x1="-32" x2="160" y1="52" y2="52"/>
              <line style="fill:none;stroke:#000000;stroke-width:0.25;stroke-miterlimit:10;" x1="-32" x2="160" y1="56" y2="56"/>
              <line style="fill:none;stroke:#000000;stroke-width:0.25;stroke-miterlimit:10;" x1="-32" x2="160" y1="60" y2="60"/>
              <line style="fill:none;stroke:#000000;stroke-width:0.25;stroke-miterlimit:10;" x1="-32" x2="160" y1="64" y2="64"/>
              <line style="fill:none;stroke:#000000;stroke-width:0.25;stroke-miterlimit:10;" x1="-32" x2="160" y1="68" y2="68"/>
              <line style="fill:none;stroke:#000000;stroke-width:0.25;stroke-miterlimit:10;" x1="-32" x2="160" y1="72" y2="72"/>
              <line style="fill:none;stroke:#000000;stroke-width:0.25;stroke-miterlimit:10;" x1="-32" x2="160" y1="76" y2="76"/>
              <line style="fill:none;stroke:#000000;stroke-width:0.25;stroke-miterlimit:10;" x1="-32" x2="160" y1="80" y2="80"/>
              <line style="fill:none;stroke:#000000;stroke-width:0.25;stroke-miterlimit:10;" x1="-32" x2="160" y1="84" y2="84"/>
              <line style="fill:none;stroke:#000000;stroke-width:0.25;stroke-miterlimit:10;" x1="-32" x2="160" y1="88" y2="88"/>
              <line style="fill:none;stroke:#000000;stroke-width:0.25;stroke-miterlimit:10;" x1="-32" x2="160" y1="92" y2="92"/>
              <line style="fill:none;stroke:#000000;stroke-width:0.25;stroke-miterlimit:10;" x1="-32" x2="160" y1="96" y2="96"/>
              <line style="fill:none;stroke:#000000;stroke-width:0.25;stroke-miterlimit:10;" x1="-32" x2="160" y1="100" y2="100"/>
              <line style="fill:none;stroke:#000000;stroke-width:0.25;stroke-miterlimit:10;" x1="-32" x2="160" y1="104" y2="104"/>
              <line style="fill:none;stroke:#000000;stroke-width:0.25;stroke-miterlimit:10;" x1="-32" x2="160" y1="108" y2="108"/>
              <line style="fill:none;stroke:#000000;stroke-width:0.25;stroke-miterlimit:10;" x1="-32" x2="160" y1="112" y2="112"/>
              <line style="fill:none;stroke:#000000;stroke-width:0.25;stroke-miterlimit:10;" x1="-32" x2="160" y1="116" y2="116"/>
              <line style="fill:none;stroke:#000000;stroke-width:0.25;stroke-miterlimit:10;" x1="-32" x2="160" y1="120" y2="120"/>
              <line style="fill:none;stroke:#000000;stroke-width:0.25;stroke-miterlimit:10;" x1="-32" x2="160" y1="124" y2="124"/>
              <line style="fill:none;stroke:#000000;stroke-width:0.25;stroke-miterlimit:10;" x1="-32" x2="160" y1="128" y2="128"/>
              <line style="fill:none;stroke:#000000;stroke-width:0.25;stroke-miterlimit:10;" x1="-32" x2="160" y1="132" y2="132"/>
              <line style="fill:none;stroke:#000000;stroke-width:0.25;stroke-miterlimit:10;" x1="-32" x2="160" y1="136" y2="136"/>
              <line style="fill:none;stroke:#000000;stroke-width:0.25;stroke-miterlimit:10;" x1="-32" x2="160" y1="140" y2="140"/>
              <line style="fill:none;stroke:#000000;stroke-width:0.25;stroke-miterlimit:10;" x1="-32" x2="160" y1="144" y2="144"/>
              <line style="fill:none;stroke:#000000;stroke-width:0.25;stroke-miterlimit:10;" x1="-32" x2="160" y1="148" y2="148"/>
              <line style="fill:none;stroke:#000000;stroke-width:0.25;stroke-miterlimit:10;" x1="-32" x2="160" y1="152" y2="152"/>
              <line style="fill:none;stroke:#000000;stroke-width:0.25;stroke-miterlimit:10;" x1="-32" x2="160" y1="156" y2="156"/>
            </g>
            <path d="M159.75-31.75v191.5h-191.5v-191.5H159.75 M160-32H-32v192h192V-32L160-32z"/>
          </g>
        </g>
        <g>
          <rect height="128" style="opacity:0.3;fill:#EF4438;" width="4" x="0" y="0"/>
          <rect height="128" style="opacity:0.3;fill:#EF4438;" width="4" x="124" y="0"/>
          <rect height="120" style="opacity:0.3;fill:#EF4438;" transform="matrix(-1.836970e-16 1 -1 -1.836970e-16 66 -62)" width="4" x="62" y="-58"/>
          <rect height="120" style="opacity:0.3;fill:#EF4438;" transform="matrix(-1.836970e-16 1 -1 -1.836970e-16 190 62)" width="4" x="62" y="66"/>
        </g>
      </g>
    </g>
  </g>
</svg>
